X: 679
T: Xiaonigu sichuen
L: 1/8
M: 2/4
K: F
d d/ f/ c c [I:setbarnb 1]| 
d d/ f/ c c | 
d d/ f< d c/ | 
A> FG2 | 
c G/ B/c2 | 
d d/ f/c2 | 
G G/ A/ F D | 
C4 | 
f A c c | 
G AG2 | 
G A G F | 
D> CD2 | 
c G/ B/c2 | 
d d/ f/c2 | 
D F z c | 
G2F D | 
C4 |]

@@@ Tune index: 9553
